X: 34657
T: Road To Boston
R: polka
M: 2/4
K: Dmajor
|:Ad fa|ge e2|cd ef|d2 d2|
Ad fa|ge e2|cd ef|d2 d2:|
|:fa af/a/|ba gf|eg ge/g/|ag fe|
df fd/f/|gf ed|cd ef|d2 d2:|

